X: 91
T:Dusty Miller, The
M:3/2
L:1/8
R:Triple Hornpipe
B:John of the Greeny Cheshire Way
N:© John Offord, Reproduced with permission
O:England
K:G
|:"G"B3 c d2 B2 A2 G2|"D"F2 A4 B2 c2 A2|"G"B3 c d2 B2 A2 G2|"D"D2 G4 B2 "G"A2G2:|
|:"G"B2>c2 d2 g2 g3 f/g/|"Am"a2 A4 c2 "D"B2 A2|"G"B2>c2 d2 g2 "D"f3 e/f/|"G"g2 G4 B2 A2G2:|


